packages/IcoMoon/src/SortNumbericDescIcon/index.svg

<svg version="1.1" xmlns="http://www.w3.org/2000/svg" width="16" height="16" viewBox="0 0 16 16">
<path d="M5 12v-12h-2v12h-2.5l3.5 3.5 3.5-3.5h-2.5z"></path>
<path d="M13.5 16c-0.276 0-0.5-0.224-0.5-0.5v-5.5h-0.5c-0.276 0-0.5-0.224-0.5-0.5s0.224-0.5 0.5-0.5h1c0.276 0 0.5 0.224 0.5 0.5v6c0 0.276-0.224 0.5-0.5 0.5z"></path>
<path d="M14.5 0h-3c-0.276 0-0.5 0.224-0.5 0.5v3c0 0.276 0.224 0.5 0.5 0.5h2.5v2h-2.5c-0.276 0-0.5 0.224-0.5 0.5s0.224 0.5 0.5 0.5h3c0.276 0 0.5-0.224 0.5-0.5v-6c0-0.276-0.224-0.5-0.5-0.5zM12 1h2v2h-2v-2z"></path>
</svg>

<svg xmlns="http://www.w3.org/2000/svg" viewBox="0 0 16 16">
  <path d="M5 12V0H3v12H.5L4 15.5 7.5 12H5zm8.5 4a.5.5 0 01-.5-.5V10h-.5a.5.5 0 010-1h1a.5.5 0 01.5.5v6a.5.5 0 01-.5.5zm1-16h-3a.5.5 0 00-.5.5v3a.5.5 0 00.5.5H14v2h-2.5a.5.5 0 000 1h3a.5.5 0 00.5-.5v-6a.5.5 0 00-.5-.5zM12 1h2v2h-2V1z"/>
</svg>
